data/styles/clear/style-clear/symbols/buddhist-m.svg

<svg height="24" viewBox="0 0 24 24" width="24"><g fill="none" fill-rule="evenodd"><circle cx="12" cy="12" fill="#fff" opacity=".6" r="12"/><circle cx="12" cy="12" fill="#7f5933" r="11"/><path d="m12.1932997 11.5333333h-.3865994l-.273367.273367v.3865994l.273367.273367h.3865994l.273367-.273367v-.3865994zm.273367-.6599663 2.8172012-2.81720124c-.777924-.64880852-1.7505178-1.07217203-2.8172012-1.16852203zm3.477108-2.15717538-2.8171417 2.81714168h3.9856962c-.0963691-1.0656607-.5194874-2.03863816-1.1685545-2.81714168zm-5.0704077 3.75047508h-3.9856962c.09636914 1.0656607.51948741 2.0386382 1.16855449 2.8171417zm-2.15723491 3.4771675c.77792397.6488086 1.75051781 1.0721721 2.81720121 1.1685221v-3.9857233zm4.41050091-3.4771675 2.8172012 2.8172012c.6488086-.777924 1.0721721-1.7505178 1.1685221-2.8172012zm2.1571754 3.477108-2.8171417-2.8171417v3.9856962c1.0656607-.0963691 2.0386382-.5194874 2.8171417-1.1685545zm-7.22764264-7.22764261c-.64880852.77792397-1.07217203 1.75051781-1.16852203 2.81720121h3.98572327zm.66002586-.6599068 2.81714168 2.81714171v-3.9856962c-1.0656607.09636914-2.03863816.51948741-2.81714168 1.16855449zm-2.76513364 3.47710801c.22709137-2.97816538 2.60928591-5.35527885 5.58227532-5.58225172v-.95108158h.9333334v.95105798c2.9781654.22709137 5.3552788 2.60928591 5.5822517 5.58227532h.9510816v.9333334h-.951058c-.2270914 2.9781654-2.6092859 5.3552788-5.5822753 5.5822517v.9510816h-.9333334v-.951058c-2.97816538-.2270914-5.35527885-2.6092859-5.58225172-5.5822753h-.95108158v-.9333334z" fill="#fff"/></g></svg>

<svg width="24" height="24" viewBox="0 0 24 24">
  <g fill="none" fill-rule="evenodd">
    <circle cx="12" cy="12" r="12" fill="#FFF" opacity=".6"/>
    <circle cx="12" cy="12" r="11" fill="#7F5933"/>
    <path fill="#FFF" d="M12.1932997,11.5333333 L11.8067003,11.5333333 L11.5333333,11.8067003 L11.5333333,12.1932997 L11.8067003,12.4666667 L12.1932997,12.4666667 L12.4666667,12.1932997 L12.4666667,11.8067003 L12.1932997,11.5333333 Z M12.4666667,10.873367 L15.2838679,8.05616576 C14.5059439,7.40735724 13.5333501,6.98399373 12.4666667,6.88764373 L12.4666667,10.873367 Z M15.9437747,8.71619162 L13.126633,11.5333333 L17.1123292,11.5333333 C17.0159601,10.4676726 16.5928418,9.49469514 15.9437747,8.71619162 Z M10.873367,12.4666667 L6.8876708,12.4666667 C6.98403994,13.5323274 7.40715821,14.5053049 8.05622529,15.2838084 L10.873367,12.4666667 Z M8.71613209,15.9438342 C9.49405606,16.5926428 10.4666499,17.0160063 11.5333333,17.1123563 L11.5333333,13.126633 L8.71613209,15.9438342 Z M13.126633,12.4666667 L15.9438342,15.2838679 C16.5926428,14.5059439 17.0160063,13.5333501 17.1123563,12.4666667 L13.126633,12.4666667 Z M15.2838084,15.9437747 L12.4666667,13.126633 L12.4666667,17.1123292 C13.5323274,17.0159601 14.5053049,16.5928418 15.2838084,15.9437747 Z M8.05616576,8.71613209 C7.40735724,9.49405606 6.98399373,10.4666499 6.88764373,11.5333333 L10.873367,11.5333333 L8.05616576,8.71613209 Z M8.71619162,8.05622529 L11.5333333,10.873367 L11.5333333,6.8876708 C10.4676726,6.98403994 9.49469514,7.40715821 8.71619162,8.05622529 Z M5.95105798,11.5333333 C6.17814935,8.55516792 8.56034389,6.17805445 11.5333333,5.95108158 L11.5333333,5 L12.4666667,5 L12.4666667,5.95105798 C15.4448321,6.17814935 17.8219455,8.56034389 18.0489184,11.5333333 L19,11.5333333 L19,12.4666667 L18.048942,12.4666667 C17.8218506,15.4448321 15.4396561,17.8219455 12.4666667,18.0489184 L12.4666667,19 L11.5333333,19 L11.5333333,18.048942 C8.55516792,17.8218506 6.17805445,15.4396561 5.95108158,12.4666667 L5,12.4666667 L5,11.5333333 L5.95105798,11.5333333 Z"/>
  </g>
</svg>
